X:11
T:Lovers' Waltz
C:Bob McQuillen
S:Bernie Waugh
R:Waltz
M:3/4
L:1/4
K:D
DE|\
"D"F3|A3|"Bm"D3-|DEF|"G"GAB|"A"~A2G|"D"F3|"A"~EDE|
"D"F3|A3|"Bm"D3-|DEF|"G"GAB|~BAB|"A"c3-|cde|
"Bm"d3|"Bm7"c3|"G"B3-|B3|"Em"B3-|"A"Bcd|"D"A3|"A"G3|
"D"F3|"A"A3|"Bm"d3|"G"efg|"D"f3|"A"e3|"D"d3-|d||

